X:1
T: The Earl of Crawford's Reel
C:Peter Milne
R:Reel
Q: 232
K:A
M:4/4
L:1/8
|:e|a2 ed ce Ac|df ce Be fg|a2 ed ce Ac|df Bg a3e|
a2 ed ce Ac|df ce Be fg|a2 ed ce Ac|df Bg a2 Ae|
cA eA fA eA|cA ec dB Ge|cA eA fA ec|dB Ge cA Ae|
cA aA gA fA|eA cA dB GB|cB ce dc df|ea gb aA A:|

